assets/img/braze_icons/stand.svg

<svg fill="none" height="24" viewBox="0 0 24 24" width="24" xmlns="http://www.w3.org/2000/svg"><path d="m12 1c.5523 0 1 .44772 1 1v1h5.8385c.5272-.00002.982-.00003 1.3565.03057.3954.0323.7886.10362 1.167.29641.5645.28762 1.0234.74656 1.311 1.31105.1928.37838.2641.7716.2964 1.16694.0306.37457.0306.82933.0306 1.35647v6.67716c0 .5271 0 .9819-.0306 1.3564-.0323.3954-.1036.7886-.2964 1.167-.2876.5645-.7465 1.0234-1.311 1.311-.3784.1928-.7716.2641-1.167.2964-.3745.0306-.8292.0306-1.3564.0306h-1.4244l3.2929 3.2929c.3905.3905.3905 1.0237 0 1.4142s-1.0237.3905-1.4142 0l-4.7071-4.7071h-1.5858v4c0 .5523-.4477 1-1 1s-1-.4477-1-1v-4h-1.58579l-4.7071 4.7071c-.39053.3905-1.02369.3905-1.41422 0-.39052-.3905-.39052-1.0237 0-1.4142l3.2929-3.2929h-1.42431c-.52711 0-.98196 0-1.35651-.0306-.39534-.0323-.78856-.1036-1.16694-.2964-.56449-.2876-1.02343-.7465-1.31105-1.311-.19279-.3784-.26411-.7716-.29641-1.167-.030601-.3745-.030586-.8293-.03057-1.3564v-6.67714c-.000016-.52713-.000031-.98192.03057-1.35649.0323-.39534.10362-.78856.29641-1.16694.28762-.56449.74656-1.02343 1.31105-1.31105.37838-.19279.7716-.26411 1.16694-.29641.37458-.0306.82934-.03059 1.35649-.03057h5.83854v-1c0-.55228.4477-1 1-1z" fill="#801ed7"/></svg>

<svg width="24" height="24" viewBox="0 0 24 24" fill="none" xmlns="http://www.w3.org/2000/svg">
<path d="M12 1C12.5523 1 13 1.44772 13 2V3H18.8385C19.3657 2.99998 19.8205 2.99997 20.195 3.03057C20.5904 3.06287 20.9836 3.13419 21.362 3.32698C21.9265 3.6146 22.3854 4.07354 22.673 4.63803C22.8658 5.01641 22.9371 5.40963 22.9694 5.80497C23 6.17954 23 6.6343 23 7.16144V13.8386C23 14.3657 23 14.8205 22.9694 15.195C22.9371 15.5904 22.8658 15.9836 22.673 16.362C22.3854 16.9265 21.9265 17.3854 21.362 17.673C20.9836 17.8658 20.5904 17.9371 20.195 17.9694C19.8205 18 19.3658 18 18.8386 18H17.4142L20.7071 21.2929C21.0976 21.6834 21.0976 22.3166 20.7071 22.7071C20.3166 23.0976 19.6834 23.0976 19.2929 22.7071L14.5858 18H13V22C13 22.5523 12.5523 23 12 23C11.4477 23 11 22.5523 11 22V18H9.41421L4.70711 22.7071C4.31658 23.0976 3.68342 23.0976 3.29289 22.7071C2.90237 22.3166 2.90237 21.6834 3.29289 21.2929L6.58579 18H5.16148C4.63437 18 4.17952 18 3.80497 17.9694C3.40963 17.9371 3.01641 17.8658 2.63803 17.673C2.07354 17.3854 1.6146 16.9265 1.32698 16.362C1.13419 15.9836 1.06287 15.5904 1.03057 15.195C0.999969 14.8205 0.999984 14.3657 1 13.8386V7.16146C0.999984 6.63433 0.999969 6.17954 1.03057 5.80497C1.06287 5.40963 1.13419 5.01641 1.32698 4.63803C1.6146 4.07354 2.07354 3.6146 2.63803 3.32698C3.01641 3.13419 3.40963 3.06287 3.80497 3.03057C4.17955 2.99997 4.63431 2.99998 5.16146 3H11V2C11 1.44772 11.4477 1 12 1Z" fill="#801ED7"/>
</svg>
